X:1
T:12 Etudes (Livre II)
T:Pour les arpèges composés
T:A la mémoire de Frédéric Chopin
T:Pour les arpèges composés 
T:12 Etudes (Livre II)
T: Debussy, Claude
T:Nr 11, CD 143 ; L.136 
T:Nr 11
T:Oli 2020
T:Oli 2020
T:Oli 2020
T:Oli 2020
T:Oli 2020
T:Oli 2020
T:Oli 2020
C:dEBUSSY, cLAUDE
Z:Oli 2020
%%score { ( 1 3 ) | ( 2 4 5 ) }
L:1/8
Q:1/8=66
M:3/4
K:Ab
V:1 treble nm="Piano"
V:3 treble 
V:2 treble 
V:4 treble 
V:5 treble 
V:1
"^[]"!p! (6:4:6(!3!b/e'/!4!c'/f/!2!c/a/) (6:4:6(!3!b/e'/c'/f/c/a/) (6:4:6(b/e'/c'/f/c/a/) | %1
 (6:4:6b/e'/c'/f/c/a/ (6:4:6a/d'/b/e/d/ z/ (6:4:6_g/_c'/a/d/c/a/ | %2
 (6:4:6(b/e'/=c'/=f/c/[I:staff +1]A/[I:staff -1] (6:4:6B/e/c/F/C/[I:staff +1]A,/)[I:staff -1][K:bass]!>(! (6:4:4(B,3/2x/x/!>)!A,/) | %3
[K:treble]!pp! (6:4:6(b/e'/c'/f/c/)a/ (6:4:6(b/e'/c'/f/c/a/) (6:4:6(b/e'/c'/f/c/a/) | %4
 (6:4:4(b3/2x/x/a/ a2 (6:4:4_g3/2x/x/a/) | %5
 (6:4:6(b/e'/=c'/=f/c/[I:staff +1]A/)[I:staff -1] (6:4:6(B/e/c/F/C/[I:staff +1]A,/)[I:staff -1][K:bass]!>(! (6:4:4(!tenuto!B,3/2x/x/!>)!A,/) | %6
 x4 x/4 x/4[K:treble] x3/2 | x2 x4 | x4 (10:4:4x2[K:treble] x2 c/ x/ | x6[K:bass] | %10
[K:treble]!<(![I:staff +1] (12:8:12(C/4[I:staff -1]D/4E/4=E/4G/4!<)!B/4!>(! =d/4=B/4^G/4^F/4=E/4=D/4)!>)!!<(![I:staff +1] (12:8:12(C/4[I:staff -1]_D/4_E/4=E/4=G/4!<)!_B/4!>(! =d/4=B/4^G/4^F/4=E/4=D/4) z2!>)! | %11
!p! (11:8:10(A/a'/4 _e'/4_d'/4b/4a/4e/4d/4A/4G/4) (11:8:10(C/=e'/4 d'/4b/4g/4=e/4d/4B/4G/4D/4) (11:8:10(E/_e'/4 b/4a/4e/4e/4B/4A/4E/4_F/4) | %12
 (11:8:10(A/a'/4 e'/4d'/4a/4a/4e/4d/4_G/4A/4) (9:8:8(B/a'/4e'/4d'/4!<(!a/4e/4d/4c/4) (10:8:9B/a'/4 e'/4d'/4a/4a/4e/4d/4!<)!c/4 | %13
!p! (!tenuto!e7/4f/4) (!tenuto!e7/4f/4)!mf! g7/4g/4 | %14
 (e7/4f/4) (!tenuto!e7/4f/4)"_molto dim." g7/4a/4 | %15
!p! (6:4:6(b/e'/c'/f/c/a/) (6:4:6(b/e'/c'/f/c/a/) (6:4:6(b/e'/c'/f/c/a/) | %16
[I:staff +1] (6:4:6((B,/[I:staff -1]e/c/F/C/A/)!<(! (6:4:6(B/e/c/F/C/!<)!A/)[K:bass]!>(![I:staff +1] (6:4:6([E,,F,]/)[I:staff -1]C/G,/D,/G,/C/)!>)! | %17
 (6:4:6(B,/E/C/F,/C,/A,/[K:treble] (6:4:6B/e/c/F/C/A/ (6:4:6b/e'/c'/f/c/a/) | %18
[I:staff +1] (6:4:6((B,/[I:staff -1]e/c/F/C/A/)!>(! (6:4:6(B/e/c/F/C/!>)!A/)[I:staff +1] (6:4:6(F,/)[I:staff -1]G/=D/A,/[I:staff +1]F,/B,,/) | %19
 (20:16:15((E,,/B,,/4E,/4[I:staff -1] G,/8B,/8E/8^F/8G/8[I:staff +1]c/8[I:staff -1]G/8F/8E/8B,/8G,/8[I:staff +1]E,/8) (15:16:15(B,,/8E,/8[I:staff -1]G,/8B,/8E/8F/8G/8[I:staff +1]c/8[I:staff -1]G/8F/8E/8B,/8G,/8[I:staff +1]E,/8B,,/8) (15:16:15(C,,/8)G,,/8=E,/8[I:staff -1]G,/8C/8=D/8=E/8G/8[I:staff +1]c/8[I:staff -1]G/8E/8D/8C/8G,/8[I:staff +1]C,/8) | %20
 (18:16:14(F,,/C,/4[I:staff -1] =A,/8C/8E/8^F/8G/8[I:staff +1]c/8[I:staff -1]G/8F/8E/8C/8A,/8[I:staff +1]=F,/8) (13:16:13(C,/8[I:staff -1]A,/8C/8E/8F/8G/8[I:staff +1]c/8[I:staff -1]G/8F/8E/8C/8[I:staff +1]F,/8C,/8) (14:16:14(B,,,/8B,,/8[I:staff -1]_A,/8B,/8D/8F/8G/8[I:staff +1]c/8[I:staff -1]G/8F/8D/8B,/8A,/8[I:staff +1]B,,/8) | %21
 (20:16:15((E,,/B,,/4E,/4[I:staff -1] G,/8B,/8E/8^F/8G/8[I:staff +1]c/8[I:staff -1]G/8F/8E/8B,/8G,/8[I:staff +1]E,/8) (14:16:14(B,,/8E,/8[I:staff -1]G,/8B,/8E/8F/8G/8[I:staff +1]c/8[I:staff -1]G/8F/8E/8B,/8[I:staff +1]E,/8B,,/8) (15:16:15(C,,/8)G,,/8=E,/8[I:staff -1]G,/8C/8=D/8=E/8G/8[I:staff +1]c/8[I:staff -1]G/8E/8D/8C/8G,/8[I:staff +1]C,/8) | %22
"^poco       a         poco           cresc." (17:16:17((A,/8B,/8D/8[I:staff -1]_F/8A/8B/8d/8_f/8[I:staff +1]a/8[I:staff -1]f/8d/8B/8A/8F/8[I:staff +1]D/8B,/8G,/8)) (17:16:17((A,/8B,/8D/8[I:staff -1]F/8A/8B/8d/8f/8[I:staff +1]a/8[I:staff -1]f/8d/8B/8A/8F/8[I:staff +1]D/8B,/8G,/8)) (17:16:17((G,/8B,/8D/8[I:staff -1]F/8A/8B/8d/8f/8[I:staff +1]a/8[I:staff -1]f/8d/8B/8A/8F/8[I:staff +1]D/8B,/8G,/8)) | %23
 (C/8D/8=E/8[I:staff -1]G/8B/8d/8=e/8g/8[I:staff +1]c'/8[I:staff -1]g/8e/8d/8B/8G/8[I:staff +1]E/8D/8) (C/8D/8E/8[I:staff -1]G/8B/8d/8e/8g/8[I:staff +1]c'/8[I:staff -1]g/8e/8d/8B/8G/8[I:staff +1]E/8D/8)[I:staff -1] z2 || %24
[K:E] (21:16:9x3/2!ff![Q:1/4=40]"^T"[I:staff +1] (C/4E/8F/8[I:staff -1]A/8c/8e/8f/8a/8)"^m.g."!8va(! (3c''!8va)! z"_dim." z!>(! (G,/4B,/4D/4G/4) (F,/4A,/4C/4!>)!F/4) | %25
[K:bass]!p![I:staff +1] (11:8:9((E,,,/4E,,/4!<(![I:staff -1]B,,/4E,/4F,/4G,/4!<)!B,/4)!mf!!<(![I:staff +1] !arpeggio!.[DFGBd]/)!arpeggio!.[CEGc]/!<)![I:staff -1][K:treble] z/4 .g/4.c'/4.f'/4{/f'}.b'/4.f'/4.c'/4.g/4 z/4 .g/4.c'/4.f'/4{/f'}.b'/4.f'/4.c'/4.g/4 | %26
!p!!<(! (11:8:8z (g/4!<)!e/4c/4A/4[I:staff +1]G/4E/4C/4)!<(![I:staff -1] (18:16:18((_E/8=G,/8_D/8E/8=F/8=G/8_d/8_e/8=f/8 =g/8_d'/8_e'/8=f'/8!8va(!=g'/8_d''/8_e''/8=f''/8!<)!=g''/8)!8va)!"^staccato\nmarcato\n"[I:staff +1] (.E/4).D/4.E/4.F/4[I:staff -1].G/4.F/4.E/4.D/4) || %27
[K:E]"^elegamente, in\npoco pomposo\n"!p!!<(! (11:8:8z[Q:1/4=36]"^T" (g/4!<)!e/4c/4A/4[I:staff +1]G/4E/4C/4)!mf![I:staff -1] (18:16:18((_E/8=G,/8!<(!_D/8E/8=F/8=G/8_d/8_e/8=f/8 =g/8_d'/8_e'/8=f'/8!8va(!=g'/8_d''/8_e''/8=f''/8!<)!=g''/8)!8va)![I:staff +1] (.E/4).D/4.E/4.F/4[I:staff -1].G/4.F/4.E/4.D/4) | %28
[Q:1/4=60]"^T" x6 | z2[K:bass] x4 | %30
[K:E]!p!"^Scherzandare"{_A,=G,} .B,,!pp![Q:1/4=58]"^T" !tenuto![F,^G,CF]/[I:staff +1]!arpeggio!.[B,,E,G,C]/[I:staff -1] !tenuto![F,G,CF]/[I:staff +1]!arpeggio!.[B,,E,G,C]/[I:staff -1] !tenuto![F,G,CF]/[I:staff +1]!arpeggio!.[B,,E,G,C]/!<(![I:staff -1] !tenuto![F,G,CF][I:staff +1].[DGBd] | %31
[I:staff -1][K:treble][I:staff +1] ([CEGc]!<)![I:staff -1][GBdg])[K:bass]!<(! z!<)!!p!{=G=DB,} .=F,/!<(!.E,/!<)!!p!!>(!{GDB,} .F,/.E,/.F,/!>)!.E,/ | %32
[K:Ab]!<(!{GDB,} .F,{GE}.C{GDB,} .F,!<)!!>(!{GE}.C{GDB,} .F,!>)!{GE}.C | %33
[K:E]!p!{_A,=G,} .B,,!pp! !tenuto![F,^G,CF]/[I:staff +1]!arpeggio!.[B,,E,G,D]/[I:staff -1] !tenuto![F,G,CF]/[I:staff +1]!arpeggio!.[B,,E,G,D]/[I:staff -1] !tenuto![F,G,CF]/[I:staff +1]!arpeggio!.[B,,E,G,D]/[I:staff -1] !tenuto![F,G,CF]!<(![I:staff +1]([DGBd] | %34
[I:staff -1][K:treble][I:staff +1] [CEGc]!<)![I:staff -1][GBdg]) z!p!!<(!{e'bg} (3.e/.d/.c/{b=e=d} (3.B/.^A/!<)!.G/!f!!<(! ([^EB-^d-e]/[ABd^a]/)!<)! | %35
 z!p!!<(!{=e'bg} (3.=e/.d/.c/{b^e=d} (3.B/.^A/!<)!.G/!f!!<(! ([^EB-^d-e]/!<)![ABd^a]/) z!f!!<(! ([EB-d-e]/!<)![ABda]/) | %36
 z!f! (3[D^E]/[=D^A]/[CE]/!<(! G2-!<)! (.G/4.F/4.G/4.A/4.B/4.A/4.G/4.F/4) | %37
[K:Ab]!f! z z/!<(! (f/8c/8B/8G/8!<)![K:bass]!>(! .[E,B,])!>)! z/[K:treble]!<(! (f/8c/8B/8G/8!<)![K:bass]!>(! .[E,B,])!>)! z | %38
[K:E]!p!"^Rit." (4:3:11z2[K:treble][Q:1/4=45]"^T" (7:4:7.d'/.a/.g/.e/.d/.A/.G/[K:bass]!pp! .[E,F,] z z2 | %39
!p! z .[CDG]/.[F,B,D]/ .[CDG]/.[F,B,D]/ .[CDG]/.[F,B,D]/!>(! ([CDG]!>)!.[=F,B,=D]) | %40
 z/!<(! .[^F,=CE]/.[=G,_D_E]/.[^G,=D]/ .[=A,_E=G]/!<)!!>(!.[^A,=E^F]/!>)!!tenuto![B,=F]- [B,F] z | %41
 z!p! .[^C^D^G]/.[^F,B,D]/ .[CDG]/.[F,B,D]/ .[CDG]/.[F,B,D]/!>(! ([CDG]!>)![=F,B,=D]) | %42
!p! z .[C,D,G,]/[I:staff +1].[F,,B,,D,]/[I:staff -1] .[C,D,G,]/[I:staff +1].[F,,B,,D,]/[I:staff -1] .[C,D,G,]/[I:staff +1].[F,,B,,D,]/!<(![I:staff -1] .[C,D,G,]!<)!"_pincé"{/B,}[E,A,D] | %43
 z .[C,D,G,]/[I:staff +1].[F,,B,,D,]/[I:staff -1] .[C,D,G,]/[I:staff +1].[F,,B,,D,]/[I:staff -1] .[C,D,G,]/[I:staff +1].[F,,B,,D,]/!<(![I:staff -1] (.[C,D,G,]!<)!"_pincé"{/B,)}[E,A,D] | %44
!pp!"^Rit." z[Q:1/4=40]"^T" ([CDG]/[F,B,D]/ [B,DG])[I:staff +1][^E,B,D]-[I:staff -1][K:treble]{/^e} .^E{/!fermata!^a'}!fermata!^a || %45
[K:Ab]"^tempo rubato" (12:8:11(B/_c/4!pp!=d/4f/4b/4a/4f/4d/4c/4 A/4F/4) (12:8:11(=E/F/4A/4B/4=e/4=d/4=B/4=A/4F/4 =D/4=B,/4) (15:8:15(=C/4!<(!D/4^F/4A/4 =c/4d/4e/4^f/4=a/4 c'/4=d'/4=e'/4^f'/4!<)! c/4_c/4) | %46
!pp![I:staff +1] (12:8:11(_B/_c/4=d/4f/4b/4_a/4f/4d/4c/4 A/4F/4) (12:8:11(=E/F/4A/4B/4=e/4d/4=B/4=A/4F/4 =D/4_C/4)[I:staff -1] z2 | %47
[K:bass] x2 z2[K:treble]!<(!{/B} e2!<)! | %48
[K:bass]"^Molto rit."[Q:1/4=30]"^T" z2 z2[K:treble] (6:4:6(b/e'/c'/f/d/a/) || %49
"_sempre"!pp!"^Tempo I°"[Q:1/4=33]"^T" (6:4:6(b/"_e lusigando"e'/c'/f/c/a/) (6:4:6(b/e'/c'/f/c/a/) (6:4:6(b/e'/c'/f/c/a/) | %50
 (6:4:6((b/e'/c'/f/c/a/ (6:4:6a/d'/b/e/B/ z/ (6:4:6_g/_c'/g/d/A/a/)) | %51
 (6:4:6(b/e'/=c'/f/c/[I:staff +1]A/)[I:staff -1] (6:4:6(B/e/c/F/C/[I:staff +1]A,/)[I:staff -1][K:bass]"_rinf." (6:4:6(B,/E/C/F,/D,/B,/) | %52
!pp!!<(! (6:4:6C/!<)! (=E/G/E/G/E/) (6:4:6C/ (E/G/E/G/E/) (6:4:6C/!>(! (E/G/E/G/!>)!E/) | %53
[K:treble]!pp! (6:4:6(b/e'/c'/f/c/a/) (6:4:6(b/e'/c'/f/c/a/) (6:4:6(b/e'/c'/f/c/a/) | %54
 (6:4:6((b/e'/c'/f/c/a/ (6:4:6a/d'/b/e/B/ z/ (6:4:6_g/_c'/g/d/A/a/)) | %55
 (6:4:6(b/e'/c'/f/c/[I:staff +1]A/)[I:staff -1] (6:4:6(B/e/c/F/C/[I:staff +1]A,/)[I:staff -1][K:bass] (6:4:6(B,/E/C/F,/D,/A,/) | %56
[K:treble]!<(! (6:4:6E/!<)! (_G/B/G/B/G/) (6:4:6E/ (G/B/G/B/G/)[Q:1/4=38]"^T"!>(!"^Rit." (6:4:6E/ (G/[Q:1/4=37]"^T"B/[Q:1/4=36]"^T"G/[Q:1/4=35]"^T"B/!>)![Q:1/4=34]"^T"G/)"^//" | %57
"^Tempo I°"!pp! z[Q:1/4=33]"^T" !tenuto![Adea]/[I:staff +1]!arpeggio!.[_CE_G_c]/[I:staff -1] !tenuto![Adea]/[I:staff +1]!arpeggio!.[_G,G]/[I:staff -1] !tenuto![Adea]/[I:staff +1]!arpeggio!.[CEGc]/!<(![I:staff -1] ([Adea]!<)!.[B=dfb]) | %58
[K:treble]!<(! (12:16:12((A/8B,/8_F/8_G/8A/8B/8_f/8_g/8a/8b/8_f'/8!<)!b'/8)!>(! (12:16:12a'/8_g'/8f'/8b/8a/8g/8f/8B/8A/8G/8F/8!>)!B,/8)!>(! A,/_G,/!>)! x | %59
!pp! z !tenuto![Adea]/[I:staff +1].[_CE_G_c]/[I:staff -1] !tenuto![Adea]/[I:staff +1].[_G,G]/[I:staff -1] !tenuto![Adea]/[I:staff +1].[CEGc]/[I:staff -1] ([Adea]!arpeggio!.[Be_gb]) | %60
!<(! (12:16:12((A/8_C/8F/8_G/8A/8_c/8f/8_g/8a/8_c'/8f'/8!<)!b'/8)!>(! (15:16:15a'/8_g'/8f'/8c'/8b/8a/8g/8f/8c/8B/8A/8G/8F/8C/8!>)!B,/8) x2 | %61
!pp! z2 (6:4:6(B,/E/C/[I:staff +1]F,/C,/A,/) D,,2 | %62
!pp![I:staff -1] z2 (6:4:6(B,/E/C/[I:staff +1]=F,/C,/A,/) D,,2 |[I:staff -1] x6 | %64
!ppp! (5:8:9(a/8e/8d/8A/8[I:staff +1]E/8D/8A,/8E,/8-E,,/4 E,/>A,/ C/8E/8A/8c/8e/8"^m.d."[I:staff -1]a/8c'/8e'/8 (a'2-) | %65
"_laissez vibrer" a'6-) | a'2 z2 z2 |] %67
V:2
"^dolce e lusingando" z6 | (._g/.d/.A/.E/) (._f/._c/._G/.D/) (.A/._F/._C/._G,/) | %2
[K:bass] A,,,2-[K:treble][K:bass] A,,,[K:bass] z (D,,F,,) | A,,,2- A,,, z z2 | %4
[K:treble] (._g/.d/.A/.E/) (._f/._c/._G/.D/) (.A/._F/._C/._G,/) | %5
[K:bass] A,,,2-[K:treble][K:bass] A,,,[K:bass] z (D,,A,,) | %6
!pp!!ped! (20:16:16(A,,,/E,,/4 =B,,/8[I:staff -1]C,/8E,/8A,/8C/8[I:staff +1]E/8F/8E/8[I:staff -1]C/8A,/8E,/8C,/8[I:staff +1]B,,/8E,,/8) (21:16:15(A,,,3/4E,,/4 =B,,/8[I:staff -1]C,/8E,/8A,/8[I:staff +1]E/8F/8E/8[I:staff -1]C/8A,/8E,/8C,/8[I:staff +1]B,,/8E,,/8)!ped-up! (10:4:10A,,,/=G,,/=E,/[I:staff -1]G,/C/=D/=E/G/"^m.g"c/[I:staff +1] z/ | %7
!ped! (20:16:16(_D,,/A,,/4 =E,/8[I:staff -1]F,/8A,/8D/8_E/8[I:staff +1][K:treble]A/8d/8_e/8d/8A/8[I:staff -1]E/8D/8A,/8F,/8)[I:staff +1][K:bass] (17:16:17(A,,/8=E,/8[I:staff -1]F,/8A,/8D/8E/8[I:staff +1][K:treble]A/8d/8e/8d/8A/8[K:bass][I:staff -1]E/8D/8A,/8F,/8[I:staff +1]=E,/8A,,/8) z2 |!ped-up! %8
!ped! (22:16:16(A,,,3/4E,,/4 =B,,/8[I:staff -1]C,/8E,/8A,/8C/8[I:staff +1]E/8F/8E/8[I:staff -1]C/8A,/8E,/8C,/8[I:staff +1]B,,/8E,,/8) (22:16:16(A,,,3/4E,,/4 B,,/8[I:staff -1]C,/8E,/8A,/8C/8[I:staff +1]E/8F/8E/8[I:staff -1]C/8A,/8E,/8C,/8[I:staff +1]B,,/8E,,/8) (10:4:10C,,/G,,/=E,/[I:staff -1]G,/C/=D/=E/G/"^m.g"c/[I:staff +1] z/!ped-up! | %9
 (20:16:16(D,,/A,,/4 =E,/8[I:staff -1]F,/8A,/8D/8_E/8[I:staff +1][K:treble]A/8d/8e/8d/8A/8[I:staff -1]E/8D/8A,/8F,/8)[I:staff +1][K:bass] (14:16:14(A,,/8!courtesy!=E,/8[I:staff -1]F,/8A,/8D/8E/8[I:staff +1][K:treble]A/8d/8e/8d/8[I:staff -1]E/8D/8A,/8=E,/8)[I:staff +1][K:bass]!<(! z2!<)! | %10
 C/>D/=B, C/>D/B, =DF | z .[B,_D] z .[G,B,_F] z .[_F,B,D] | z .[B,D] z .[G,C_E] z .[_G,DE] | %13
[I:staff -1] (18:16:11e/d/4 A/8F/8[I:staff +1]E/8D/8A,/8F,/8"_m.d."A,,/8D,,/8- z/[I:staff -1] (18:16:11e/d/4 A/8F/8[I:staff +1]E/8D/8A,/8F,/8"_m.d."A,,/8D,,/8- z/[I:staff -1] (15:16:12g/8=e/8=d/8=B/8F/8[I:staff +1]=E/8=D/8=B,/8F,/8"_m.d."=G,,/8=D,,/8- z/ | %14
[I:staff -1] (18:16:11e/d/4 A/8F/8[I:staff +1]E/8D/8A,/8F,/8"_m.d."A,,/8D,,/8- z/[I:staff -1] (18:16:11e/d/4 A/8F/8[I:staff +1]E/8D/8A,/8F,/8"_m.d."A,,/8D,,/8- z/ z2 | %15
[K:treble] z2 z2"^expressif" !tenuto!F>C | B,2[K:bass] A,>G, (E,,2 | %17
 A,,,2) z2[K:treble] !tenuto!F>C | B,2[K:bass] A,>G, F,2 | %19
!ped! x x/4[K:treble] x/4 x/[K:bass] x3/4 x/8[K:treble] x/8 x/4 x/[K:bass] x/4 x[K:treble] x[K:bass] |!ped-up! %20
!ped! x x/[K:treble] x/4 x/4[K:bass] x/ x/4 x/8[K:treble] x/8 x/ x/[K:bass] x!ped-up![K:treble] x/ x/4[K:bass] x/4 | %21
!ped! x x/4[K:treble] x/4 x/[K:bass] x[K:treble] x/[K:bass] x/4 x/4 x!ped-up![K:treble] x/ x/4[K:bass] x/4 | %22
!<(! x/ x/4 x/8[K:treble] x/8 x/ x/8[K:bass] x/8 x/4!<)!!<(! x/ x/4 x/8[K:treble] x/8 x/ x/8[K:bass] x/8 x/4!<)!!<(! x/ x/4 x/8[K:treble] x/8 x/ x/8[K:bass] x/8 x/4!<)! | %23
 x[K:treble] x/ x/8[K:bass] x/8 x/4 x[K:treble] x/ x/8[K:bass] x/8 x/4 (!tenuto!=B,7/4C/4) || %24
[K:E]"^Lumineux" (21:16:4z3/2 C/ x/ x/8"^sec" z2 !tenuto!B,,2 | %25
 x x/4[K:treble] x/4 x/!f!!>(! (!arpeggio!!tenuto![FGBf]!>)!!arpeggio!!tenuto![B,EGc])!f! (!tenuto![FGBf]!tenuto![B,EGc]) | %26
[K:bass] .[F,,,F,,]2 .[_B,,,_B,,]2 .[_E,,,_E,,]2 ||[K:E] [F,,,F,,]2 [_B,,,_B,,]2 [_E,,,_E,,]2 | %28
!f!"^Giocoso"{=C_D} !tenuto!C[I:staff -1]{_A_ED}[I:staff +1]._B,/.C/{DE} !tenuto!D[I:staff -1]{AED}[I:staff +1].C/.B,/ ._A,/.C/[I:staff -1]{AED}[I:staff +1]!tenuto!B,- | %29
 B,._A,/.=G,/!>(!"^dim."[I:staff -1]{A,G,}[I:staff +1] !tenuto!_D,!>)!.A,/!>(!.G,/[I:staff -1]{A,G,}[I:staff +1] !tenuto!=C,!>)!.A,/.G,/ | %30
[K:E] .[E,,,E,,] x x2 x[K:treble] z | %31
 x2[K:bass] z{/.G,,} .=D,,/.C,,/{/.G,,} .D,,/.C,,/.=C,,/.B,,,/ | %32
[K:Ab] !tenuto!B,,,>.E,, !tenuto!B,,>.E, !tenuto!B,,>.E,, |[K:E] .[E,,,E,,] x x2 x[K:treble] z | %34
 x2[K:bass]!f!"^m.d."!<(!{G,G,,} [F,,,F,,]2!<)![K:treble] (3.[GB].[=D^E][B,^D] | %35
[K:bass] x"^m.d."!f!!<)!!<(!{G,G,,} [F,,,F,,][K:treble] (3.[GB].[=D^E][B,^D][K:bass]{G,G,,} .[F,,,F,,] [B,D] | %36
 z2 (3(D,/E,/^E,/F,-) F, z |[K:Ab] !trill(!TE6 |[K:E] (4:3:2!trill(!TD6!<(! z2!<)! | %39
!sfz! z .F,/.C,/ .F,,/.B,,/ .F,/.C,/ (.F,,.=G,,) | %40
 z/ .[=D,,=A,,]/.[_E,,_B,,]/.[=E,,=B,,]/ .[=F,,=C,]/.[^F,,^C,]/!tenuto![G,,=D,]- [G,,D,]!sfz! x | %41
!sfz! z .F,/.C,/ .F,,/.B,,/ .F,/.C,/ (F,,.=G,,) | .B,,, x4 .F,,, | .B,,, x4 .F,,, | %44
 B,,, z x2 [E,B,D][K:treble]!fermata!^A ||[K:Ab] x6 | B3/2 x/ =E3/2 x/ B,2- | %47
 (6:4:6(B,/[K:bass]E/=C/[I:staff -1]F,/D,/A,/)[I:staff +1]{B,,,F,,[I:staff -1]D,A,C}[I:staff +1] F4 | %48
 (6:4:6(B,/E/C/[I:staff -1]F,/D,/A,/)[I:staff +1] z2{/B,} E2 || A,,,2- A,,, z z2 | %50
[K:treble] (.g/.d/.A/.E/) (._f/._c/._G/.D/) (.A/._F/._C/._G,/) | %51
[K:bass] (3:2:1A,,,3[K:treble] (3x x[K:bass] x (.D,,.A,,) | [C,,G,,]2 x2 [E,,,E,,]2 | %53
 A,,,2- A,,, z z2 |[K:treble] (.g/.d/.A/.E/) (._f/._c/._G/.D/) (.A/._F/._C/._G,/) | x6[K:bass] | %56
 [_G,,,_G,,]4 z2 | x2[K:treble] x2[K:bass] x !arpeggio![_G,A,_C=DF] | %58
 (12:8:4z7/4 x/ x/[K:treble] ((B/4 (12:8:4A7/4)x/x/[K:bass]B,,/4 A,,/_G,,/[B,,,B,,]/[A,,,A,,]/) | %59
!ped! x2[K:treble] x2[K:bass] x!ped-up! !arpeggio![E,_G,_CE] | %60
 (12:8:4z7/4 x/ x/[K:treble] (B/4 A2)[K:bass]!>(![I:staff -1] .A,/[I:staff +1].E,/._D,/.B,,/!>)! | %61
 A,,,2- A,,, z!ped!!<(! (19:8:12((D,,/4(A,,/4)[I:staff -1]_F,/4)=G,/4C/4E/4[I:staff +1][K:treble](A/4(d/4)[I:staff -1]((((_f/4(g/4))))!<)!(c'/4 e'2))))!ped-up! | %62
[I:staff +1][K:bass] A,,,2!ped-up! z2!ped!!<(! (19:8:12((D,,/4(A,,/4)[I:staff -1]_F,/4)=G,/4C/4E/4[I:staff +1][K:treble](A/4d/4)[I:staff -1]((((_f/4(g/4))))!<)!(c'/4 e'2-))) | %63
 ((((e'2!>(! .c'2)))) .e'2!>)! |[I:staff +1] z2!ped! A,,,4[K:treble]!ped-up! | x6 | x6 |] %67
V:3
 x6 | (6:4:4(b3/2x/x/a/ a2 (6:4:4_g3/2x/x/a/) | b2 x2[K:bass] (6:4:6B,/E/C/F,/D,/A,/ | %3
[K:treble] x6 | (6:4:6b/e'/c'/f/c/a/ (6:4:6a/d'/b/e/B/ z/ (6:4:6_g/_c'/a/d/c/a/ | %5
 b2 x2[K:bass] (6:4:6B,/E/C/F,/D,/A,/ | x4 (10:4:6x x[K:treble] x x c/ x/ | x6 | %8
 x9/2[K:treble] x61/40 | x/[K:bass] x/ x x2 x2 |[K:treble] x6 | %11
 (11:8:5(A7/4x/4x/4x/4G/4) (11:8:5(C7/4x/4x/4x/4D/4) (11:8:5(E7/4x/4x/4x/4_F/4) | %12
 (11:8:6A3/2x/4x/4x/4_G/4A/4 (9:8:3B7/4x/4c/4 (10:8:4B7/4x/4x/4c/4 | x241/40 | x2 x2 z2 | x6 | %16
 x4[K:bass] x2 |[I:staff +1] E,2[K:treble][I:staff -1] x4 | x6 | x6 | x6 | x6 | x6 | x6 || %24
[K:E] x2!8va(! x2/3!8va)! x10/3 |[K:bass] x2[K:treble] x4 | G,[I:staff +1].A,[I:staff -1] _E2 x2 || %27
[K:E] G,[I:staff +1]A,[I:staff -1] _E2 x2 | x6 | x2[K:bass] x4 |[K:E] x6 | %31
[K:treble] x2[K:bass] x4 |[K:Ab] x6 |[K:E] x6 |[K:treble] x6 | x6 | %36
 x2 (3([G,^B,]/[=A,C]/[^A,=D]/[=B,^D]-) [B,D] z |[K:Ab] x2[K:bass] x3/2[K:treble] x/[K:bass] x2 | %38
[K:E] x3/2[K:treble] x95/64[K:bass] x3 | x6 | x6 | x6 | x6 | x6 | x4[K:treble] x2 || %45
[K:Ab] B3/2 x/ =E3/2 x/ C3/2 x/ | x6 |[K:bass] x4[K:treble] x2 |[K:bass] x4[K:treble] x2 || x6 | %50
 (6:4:3b3/2xa/ a2 (6:4:3_g3/2xa/ | x4[K:bass] (6:4:3B,3/2xB,/ | %52
[I:staff +1]{C,,G,,[I:staff -1]=D,-=E,-G,-} [=D,E,G,]2 x2[I:staff +1]{_E,,,_E,,[I:staff -1]_D,-_F,-G,-} [D,F,G,]2 | %53
[K:treble] x6 | (6:4:3b3/2xa/ a2 (6:4:3_g3/2xa/ | x4[K:bass] (6:4:4(B,3/2x/x/A,/) | %56
[K:treble][I:staff +1]{_G,,,(_G,,[I:staff -1]_F,-)A,-B,-} [F,A,B,]4 x2 | x6 | %58
[K:treble] (12:8:4A7/4x/x/b'/4 (12:8:4a'7/4x/x/B,/4 x2 | x6 | %60
 (12:8:4A7/4x/x/b'/4 (15:8:5a'7/4xx/x/4B,/4 x2 | x6 | x6 | x6 | a4 x2 | x6 | x6 |] %67
V:4
 x6 | x6 |[K:bass] (6:4:4x x[K:treble] x/ x/[K:bass] x2[K:bass] x2 | x6 |[K:treble] x6 | %5
[K:bass] (6:4:4x x[K:treble] x/ x/[K:bass] x2[K:bass] x2 | A,,,4 (11:4:6A,,,xxxx/G,,, | %7
 D,,4[K:treble][K:bass][K:treble][K:bass] _E,,,2 | A,,,4 (11:4:6C,,xxxx/B,,, | %9
 D,,4[K:treble][K:bass][K:treble][K:bass] (F,G,) | x6 | (._F,2 .D,2 ._G,,2) | (.E,2 .D,2 .A,,2) | %13
 (18:16:4x x/ A,,/4D,,/ (18:16:4x x/ A,,/4D,,/ (15:16:4x x/8 G,,/4D,,/ | %14
 (18:16:4x x/ A,,/4D,,/ (18:16:4x x/ A,,/4D,,/ x2 |[K:treble] x6 | x2[K:bass] x4 | %17
 x4[K:treble] x2 | x2[K:bass] x4 | %19
 E,,4[K:treble][K:bass][K:treble][K:bass] C,,2[K:treble][K:bass] | %20
 F,,2[K:treble][K:bass] F,,7/4[K:treble][K:bass]G,,/4 B,,,2[K:treble][K:bass] | %21
 E,,4[K:treble][K:bass][K:treble][K:bass] C,,2[K:treble][K:bass] | %22
 (17:16:4A,7/4[K:treble][K:bass]x/8x/8G,/8 (17:16:4A,7/4[K:treble][K:bass]x/8x/8G,/8 (17:16:4_G,7/4[K:treble][K:bass]x/8x/8=G,/8 | %23
 C4[K:treble][K:bass][K:treble][K:bass] x2 || %24
[K:E] x2 x2[I:staff -1] (.G,/[I:staff +1]x/[I:staff -1].F,/)[I:staff +1] x/ | E,,,2[K:treble] x4 | %26
[K:bass] x6 ||[K:E] x6 | x6 | x6 |[K:E] x5[K:treble] x | x2[K:bass] x4 |[K:Ab] x6 | %33
[K:E] x5[K:treble] x | x4[K:bass][K:treble] (3:2:4x x (^E,/^A,/) | %35
[K:bass] x2[K:treble] (3:2:4x x (^E,/^A,/)[K:bass] x2 | x6 |[K:Ab] z2 .C z .C !trill)!z | %38
[K:E] (4:3:9z2 x2 .A, !trill)!z .D/4.C/4.E/4!f!.D/4 !fermata!z | .B,,,2 x4 | x4 z !courtesy!^F,,, | %41
 !tenuto!.B,,, x4 x | x6 | x6 | x5[K:treble] x ||[K:Ab] x6 | x6 | x/3[K:bass] x17/3 | %48
 x2{B,,,F,,[I:staff -1]D,A,C}[I:staff +1] !tenuto!F4 || x6 |[K:treble] x6 | %51
[K:bass] x4/3[K:treble] x2[K:bass] x8/3 | x6 | x6 |[K:treble] x6 | x2 x2[K:bass] (.D,,.A,,) | x6 | %57
 x[K:treble] x3[K:bass] x2 | _G,,,2[K:treble] x4[K:bass] | [E,,E,]6[K:treble][K:bass] | %60
 ([=D,,,=D,,]4[K:treble][K:bass] [E,,,E,,]2) | x37/8[K:treble] x11/8 | %62
[K:bass] x37/8[K:treble] x11/8 | x6 | x2 x x/4[K:treble] x3/4 x2 | x6 | x6 |] %67
V:5
 x6 | x6 |[K:bass] x4/3[K:treble] x2/3[K:bass] x[K:bass] x3 | x6 |[K:treble] x6 | %5
[K:bass] x4/3[K:treble] x2/3[K:bass] x[K:bass] x3 | x6 | %7
 x11/10[K:treble] x9/10[K:bass] x7/10[K:treble] x7/12[K:bass] x163/60 | x241/40 | %9
 x11/10[K:treble] x9/10[K:bass] x17/20[K:treble] x17/15[K:bass] x121/60 | x6 | x121/20 | x6 | %13
 x241/40 | x241/40 |[K:treble] x6 | x2[K:bass] x4 | x4[K:treble] x2 | x2[K:bass] x4 | %19
 x5/4[K:treble] x3/4[K:bass] x7/8[K:treble] x7/8[K:bass] x5/4[K:treble] x3/4[K:bass] x/4 | %20
 x9/8[K:treble] x7/8[K:bass] x7/8[K:treble] x3/4[K:bass] x11/8[K:treble] x3/4[K:bass] x/4 | %21
 x5/4[K:treble] x3/4[K:bass] x[K:treble] x/[K:bass] x3/2[K:treble] x3/4[K:bass] x/4 | %22
 x7/8[K:treble] x3/4[K:bass] x5/4[K:treble] x3/4[K:bass] x5/4[K:treble] x3/4[K:bass] x3/8 | %23
 x[K:treble] x5/8[K:bass] x11/8[K:treble] x5/8[K:bass] x19/8 ||[K:E] x6 | x81/64[K:treble] x19/4 | %26
[K:bass] x6 ||[K:E] x6 | x6 | x6 |[K:E] x5[K:treble] x | x2[K:bass] x4 |[K:Ab] x6 | %33
[K:E] x5[K:treble] x | x2[K:bass] x2[K:treble] x2 |[K:bass] x4[K:treble][K:bass] x ^E,/^A,/ | x6 | %37
[K:Ab] x6 |[K:E] x6 | x6 | x6 | x6 | x6 | x6 | x5[K:treble] x ||[K:Ab] x6 | x6 | %47
 x/3[K:bass] x17/3 | x2 x2 x .E,, || x6 |[K:treble] x6 |[K:bass] x4/3[K:treble] x2[K:bass] x8/3 | %52
 x6 | x6 |[K:treble] x6 | x7/2[K:bass] x5/2 | x6 | x[K:treble] x3[K:bass] x2 | %58
 x11/6[K:treble] x2[K:bass] x13/6 | x[K:treble] x3[K:bass] x2 | x11/6[K:treble] x2[K:bass] x13/6 | %61
 x37/8[K:treble] x11/8 |[K:bass] x37/8[K:treble] x11/8 | x6 | x13/4[K:treble] x11/4 | x6 | x6 |] %67

